X: 165
T:The Banshee
M:4/4
R:Reel
Z:Steven Palm, 25/4/2000
K:D
|: G3 DEDEG | AGAB d2Bd | e2 gedBGA | BAGEED D2 :|
| eaagefge | dBBA B3 B  | gBfB eBBA | B4 eaag    |
| efgedBBA | B3 de3 d   | B2 GABAGE | ED (D D6) ||
<end>
<start>
